icons/line/status-online.svg

<svg width="24" height="24" viewBox="0 0 24 24" fill="none" xmlns="http://www.w3.org/2000/svg">
<path fill-rule="evenodd" clip-rule="evenodd" d="M5.63604 5.63603C6.02656 5.24551 6.02656 4.61234 5.63604 4.22182C5.24551 3.83129 4.61235 3.83129 4.22183 4.22182C-0.0739418 8.51758 -0.0739418 15.4824 4.22183 19.7782C4.61235 20.1687 5.24551 20.1687 5.63604 19.7782C6.02656 19.3876 6.02656 18.7545 5.63604 18.364C2.12132 14.8492 2.12132 9.15075 5.63604 5.63603ZM19.7782 4.22182C19.3876 3.83129 18.7545 3.83129 18.364 4.22182C17.9734 4.61234 17.9734 5.24551 18.364 5.63603C21.8787 9.15075 21.8787 14.8492 18.364 18.364C17.9734 18.7545 17.9734 19.3876 18.364 19.7782C18.7545 20.1687 19.3876 20.1687 19.7782 19.7782C24.0739 15.4824 24.0739 8.51759 19.7782 4.22182ZM8.46447 8.46446C8.85499 8.07393 8.85499 7.44077 8.46447 7.05024C8.07394 6.65972 7.44078 6.65972 7.05025 7.05024C4.31658 9.78392 4.31658 14.2161 7.05025 16.9497C7.44078 17.3403 8.07394 17.3403 8.46447 16.9497C8.85499 16.5592 8.85499 15.9261 8.46447 15.5355C6.51184 13.5829 6.51184 10.4171 8.46447 8.46446ZM16.9497 7.05024C16.5592 6.65972 15.9261 6.65972 15.5355 7.05024C15.145 7.44077 15.145 8.07393 15.5355 8.46446C17.4882 10.4171 17.4882 13.5829 15.5355 15.5355C15.145 15.9261 15.145 16.5592 15.5355 16.9497C15.9261 17.3403 16.5592 17.3403 16.9497 16.9497C19.6834 14.2161 19.6834 9.78391 16.9497 7.05024ZM11 12C11 11.4477 11.4477 11 12 11C12.5523 11 13 11.4477 13 12C13 12.5523 12.5523 13 12 13C11.4477 13 11 12.5523 11 12ZM12 9C10.3431 9 9 10.3431 9 12C9 13.6569 10.3431 15 12 15C13.6569 15 15 13.6569 15 12C15 10.3431 13.6569 9 12 9Z" fill="currentColor"/>
</svg>

<svg width="24" height="24" fill="none" xmlns="http://www.w3.org/2000/svg"><path fill-rule="evenodd" clip-rule="evenodd" d="M5.636 5.636a1 1 0 00-1.414-1.414c-4.296 4.296-4.296 11.26 0 15.556a1 1 0 001.414-1.414 9 9 0 010-12.728zm14.142-1.414a1 1 0 10-1.414 1.414 9 9 0 010 12.728 1 1 0 101.414 1.414c4.296-4.296 4.296-11.26 0-15.556zM8.464 8.464A1 1 0 007.05 7.05a7 7 0 000 9.9 1 1 0 101.414-1.414 5 5 0 010-7.072zM16.95 7.05a1 1 0 10-1.414 1.414 5 5 0 010 7.072 1 1 0 001.414 1.414 7 7 0 000-9.9zM11 12a1 1 0 112 0 1 1 0 01-2 0zm1-3a3 3 0 100 6 3 3 0 000-6z" fill="currentColor"/></svg>
